X:48
T:What'll Be King But Charlie
M:6/8
L:1/8
F:http://blackrosetheband.googlepages.com/ABCTUNES.ABC May 2009
R:jig
K:Am
|:\
"Am"c2B AGE | c2B AGE | c2E EDE | "G"G3 GAB ||\
"C"c2d e2a | age ded | c2A "G"BAG | "Am"A3 A2B :| 
|:\
"C"c3 c2d | eag e2d | c2A c2d | ez2 "G"G2A ||\
"C"c2d e2a | "G"age ded | "C"c2A "G"BAG | "Am"A3 A2B :| 
